libs/ui/packages/crypto-icons/src/svg/XCP.svg

<svg width="24" height="24" viewBox="0 0 24 24" fill="none">
<path fill-rule="evenodd" clip-rule="evenodd" d="M17.6232 6.75903H14.5902C14.5286 6.75914 14.4678 6.77154 14.4111 6.79549C14.3544 6.81945 14.3031 6.85448 14.2602 6.89853L8.72892 12.5453C8.68597 12.5893 8.63466 12.6244 8.57799 12.6483C8.52132 12.6723 8.46044 12.6847 8.39892 12.6848H7.38492C7.32339 12.6847 7.26251 12.6723 7.20584 12.6483C7.14918 12.6244 7.09786 12.5893 7.05492 12.5453L6.33792 11.8148C6.25007 11.7253 6.20079 11.6049 6.20067 11.4795V10.4468C6.20068 10.3211 6.24995 10.2005 6.33792 10.1108L7.05492 9.38028C7.09789 9.33626 7.14921 9.30125 7.20587 9.2773C7.26253 9.25335 7.3234 9.24093 7.38492 9.24078H8.39892C8.52267 9.24078 8.64117 9.29103 8.72892 9.38028L9.16917 9.82878C9.21208 9.87287 9.26339 9.90791 9.32007 9.93184C9.37675 9.95577 9.43764 9.9681 9.49917 9.9681C9.56069 9.9681 9.62159 9.95577 9.67827 9.93184C9.73495 9.90791 9.78626 9.87287 9.82917 9.82878L10.8934 8.74578C10.981 8.65587 11.03 8.53531 11.03 8.40978C11.03 8.28426 10.981 8.16369 10.8934 8.07378L9.73842 6.89853C9.69545 6.85451 9.64413 6.8195 9.58747 6.79555C9.5308 6.7716 9.46994 6.75918 9.40842 6.75903H6.37542C6.3139 6.75918 6.25303 6.7716 6.19637 6.79555C6.13971 6.8195 6.08839 6.85451 6.04542 6.89853L3.90042 9.08253C3.81273 9.17237 3.76373 9.29299 3.76392 9.41853V12.507C3.76392 12.633 3.81342 12.7545 3.90042 12.843L6.04542 15.0278C6.08845 15.0717 6.1398 15.1065 6.19646 15.1304C6.25312 15.1542 6.31395 15.1665 6.37542 15.1665H9.40917C9.47069 15.1664 9.53155 15.154 9.58822 15.13C9.64488 15.1061 9.6962 15.0711 9.73917 15.027L15.2704 9.38103C15.3133 9.33688 15.3646 9.30173 15.4213 9.27765C15.4779 9.25356 15.5388 9.24103 15.6004 9.24078H16.6144C16.7382 9.24078 16.8567 9.29103 16.9444 9.38028L17.6614 10.1108C17.7494 10.2005 17.7987 10.3211 17.7987 10.4468V11.4795C17.7985 11.6049 17.7492 11.7252 17.6614 11.8148L16.9444 12.5453C16.9015 12.5893 16.8502 12.6244 16.7935 12.6483C16.7368 12.6723 16.6759 12.6847 16.6144 12.6848H15.6004C15.5389 12.6847 15.478 12.6723 15.4213 12.6483C15.3647 12.6244 15.3134 12.5893 15.2704 12.5453L14.8264 12.093C14.7838 12.0493 14.7329 12.0144 14.6767 11.9905C14.6205 11.9666 14.5602 11.9541 14.4991 11.9538C14.438 11.9534 14.3775 11.9652 14.321 11.9885C14.2645 12.0117 14.2133 12.046 14.1702 12.0893L12.8577 13.3958C12.8131 13.4404 12.7778 13.4934 12.7537 13.5517C12.7297 13.61 12.7173 13.6725 12.7174 13.7355V16.7655C12.7174 17.028 12.9267 17.241 13.1839 17.241H14.7139C14.7758 17.2405 14.8369 17.2279 14.8939 17.2038C14.9508 17.1796 15.0025 17.1445 15.0459 17.1004C15.0893 17.0564 15.1235 17.0042 15.1468 16.9468C15.17 16.8895 15.1817 16.8281 15.1812 16.7663V15.6413C15.1812 15.3788 15.3904 15.1665 15.6477 15.1665H17.6239C17.6854 15.1665 17.7462 15.1542 17.8029 15.1304C17.8595 15.1065 17.9109 15.0717 17.9539 15.0278L20.0989 12.843C20.1869 12.7533 20.2362 12.6327 20.2362 12.507V9.41853C20.2364 9.29299 20.1874 9.17237 20.0997 9.08253L17.9547 6.89853C17.9117 6.85451 17.8604 6.8195 17.8037 6.79555C17.7471 6.7716 17.6862 6.75918 17.6247 6.75903" fill="#ED1650"/>
</svg>

<svg width="24" height="24" viewBox="0 0 24 24" fill="none"><path fill="#ed1650" fill-rule="evenodd" d="M17.623 6.759H14.59a.46.46 0 0 0-.33.14l-5.53 5.646a.46.46 0 0 1-.33.14H7.385a.46.46 0 0 1-.33-.14l-.717-.73a.48.48 0 0 1-.137-.335v-1.033a.48.48 0 0 1 .137-.336l.717-.73a.46.46 0 0 1 .33-.14h1.014a.46.46 0 0 1 .33.14l.44.448a.46.46 0 0 0 .66 0l1.064-1.083a.48.48 0 0 0 0-.672L9.738 6.899a.46.46 0 0 0-.33-.14H6.375a.46.46 0 0 0-.33.14L3.9 9.083a.48.48 0 0 0-.136.336v3.088c0 .126.05.248.136.336l2.145 2.185a.46.46 0 0 0 .33.138H9.41a.46.46 0 0 0 .33-.139l5.531-5.646a.46.46 0 0 1 .33-.14h1.014c.124 0 .243.05.33.14l.717.73a.48.48 0 0 1 .138.336v1.033a.48.48 0 0 1-.138.335l-.717.73a.46.46 0 0 1-.33.14H15.6a.46.46 0 0 1-.33-.14l-.444-.452a.46.46 0 0 0-.656-.004l-1.312 1.307a.48.48 0 0 0-.14.34v3.03c0 .262.209.475.466.475h1.53a.47.47 0 0 0 .467-.475v-1.125a.47.47 0 0 1 .467-.475h1.976a.46.46 0 0 0 .33-.138l2.145-2.185a.48.48 0 0 0 .137-.336V9.419a.48.48 0 0 0-.136-.336l-2.145-2.184a.46.46 0 0 0-.33-.14" clip-rule="evenodd"/></svg>
